packages/icon/src/svg/lock-fill.icon.svg

<svg width="24" height="24" viewBox="0 0 24 24" fill="none" xmlns="http://www.w3.org/2000/svg">
<path fill-rule="evenodd" clip-rule="evenodd" d="M17 8.00049V10.0005H18C18.5522 10.0005 19 10.4482 19 11.0005V20.0005C19 20.5529 18.5522 21.0005 18 21.0005L6 21C5.44775 21 5 20.5522 5 20V11.0005C5 10.4482 5.44775 10.0005 6 10.0005H7V8.00049C7 5.24353 9.24304 3.00049 12 3.00049C14.757 3.00049 17 5.24353 17 8.00049ZM12 5.00049C10.3459 5.00049 9 6.34644 9 8.00049V10.0005H15V8.00049C15 6.34644 13.6541 5.00049 12 5.00049ZM12 17C12.8284 17 13.5 16.3284 13.5 15.5C13.5 14.6716 12.8284 14 12 14C11.1716 14 10.5 14.6716 10.5 15.5C10.5 16.3284 11.1716 17 12 17Z" fill="white"/>
</svg>

<svg aria-label="lock fill icon" viewBox="0 0 24 24"><path fill-rule="evenodd" clip-rule="evenodd" d="M17 8v2h1a1 1 0 011 1v9a1 1 0 01-1 1H6a1 1 0 01-1-1v-9a1 1 0 011-1h1V8c0-2.756 2.243-5 5-5s5 2.244 5 5zm-5-3c-1.654 0-3 1.346-3 3v2h6V8c0-1.654-1.346-3-3-3zm0 12a1.5 1.5 0 100-3 1.5 1.5 0 000 3z"/></svg>
